!!!Genre:	Gas-nign
!!!Mode:	Freygish
!!!Listening/dance:	listening
!!!One_Mode:	yes
**kern
*I"P1
*clefG2
*k[b-e-a-]
*G:frey
*M3/4
*>A
=1
4dd
4g
12ee-L
12dd
12ccJ
=2
4dd
4bn
12ccL
12b
12a-J
=3
4bn
4g
12a-L
12g
12fJ
=4
2.f
=5
8ffL
8ee-
8dd
8ee-
8dd
8ccJ
=6
8ddL
8cc
8bn
8cc
8b
8a-J
=7
8ddL
8cc
8bn
8cc
8b
8a-J
*>A1
=8
4g
4gg
4gg
*>A2
=9:|!
2.g
=10!|:
*>B
(8gL
8a-)
(8g
8a-)
(8g
8a-J)
=11
2bn
4g
=12
4cc
4cc
12ee-L
12dd
12ccJ
=13
2bn
4g
=14
4cc
4f
8gL
8a-J
=15
4g
2f
=16
8bnL
8cc
8dd
8cc
8b
8a-J
=17
2.g
=18:|!
*>C
4dd
4ee-
(8qee-/
8ddL)
8ccJ
=19
2bn
4g
=20
4dd
4ee-
(8qee-/
8ddL)
8ccJ
=21
2bn
4g
=22
4cc
4f
8gL
8a-J
=23
4g
2f
=24
8bnL
8cc
8dd
8cc
8b
8a-J
=25
2.g
==
*-
